X: 1625
T: The Banks of the Nile
M:2/4
L:1/16
B:O'Neill's 1625
N:"collected by F. O'Neill"
Z:Transcribed by Nick Terhorst, nickte@microsoft.com
K:D
F>E \
| D>FA>F A>Bd>A | B>ee>f e2dB | d>fa>f g>fe>d | f>ga>b a2gf |
| g>ab>g f>ga>f | g>fe>d e2 (3ABc | d>fa>f g>fe>g | f2d2 d2 :|
|: de \
| fdec dABF | Eeef e2fa | bafb agfe | fgab a2gf |
| g>ab>g f>ga>f | gfed e2 (3ABc | d>fa>f gfeg | f2d2 d2 :|


